packages/kaspersky-hexa-ui-icons/src/iconsSVGs/28x20/FlagMx.svg

<svg width="28" height="20" viewBox="0 0 28 20" fill="none" xmlns="http://www.w3.org/2000/svg">
<g clip-path="url(#clip0_5138_1407)">
<path d="M0 2C0 0.895431 0.895431 0 2 0H26C27.1046 0 28 0.895431 28 2V18C28 19.1046 27.1046 20 26 20H2C0.895431 20 0 19.1046 0 18V2Z" fill="white"/>
<mask id="mask0_5138_1407" style="mask-type:luminance" maskUnits="userSpaceOnUse" x="0" y="0" width="28" height="20">
<rect width="28" height="20" rx="2" fill="white"/>
</mask>
<g mask="url(#mask0_5138_1407)">
<path d="M26 19.5V20H2V19.5H26ZM27.5 18V2C27.5 1.17157 26.8284 0.5 26 0.5H2C1.17157 0.5 0.5 1.17157 0.5 2V18C0.5 18.8284 1.17157 19.5 2 19.5V20C0.895431 20 0 19.1046 0 18V2C2.57702e-07 0.895431 0.895431 0 2 0H26C27.1046 0 28 0.895431 28 2V18C28 19.1046 27.1046 20 26 20V19.5C26.8284 19.5 27.5 18.8284 27.5 18Z" fill="#F5F5F5"/>
<rect x="18.6667" width="9.33333" height="20" fill="#E3283E"/>
<path fill-rule="evenodd" clip-rule="evenodd" d="M0 20H9.33333V0H0V20Z" fill="#128A60"/>
<path d="M12 9.33333C12 8.96514 11.7015 8.66667 11.3333 8.66667C10.9651 8.66667 10.6667 8.96514 10.6667 9.33333H12ZM12.329 12.2181C12.6475 12.4029 13.0555 12.2945 13.2402 11.9761C13.425 11.6576 13.3167 11.2496 12.9982 11.0648L12.329 12.2181ZM15.0756 11.0198C14.7655 11.2182 14.6748 11.6305 14.8732 11.9407C15.0716 12.2508 15.4839 12.3415 15.794 12.1431L15.0756 11.0198ZM17.3333 9.33333C17.3333 8.96514 17.0349 8.66667 16.6667 8.66667C16.2985 8.66667 16 8.96514 16 9.33333H17.3333ZM10.6667 9.33333C10.6667 10.5664 11.3365 11.6422 12.329 12.2181L12.9982 11.0648C12.3999 10.7177 12 10.0718 12 9.33333H10.6667ZM15.794 12.1431C16.7183 11.552 17.3333 10.5147 17.3333 9.33333H16C16 10.041 15.6329 10.6634 15.0756 11.0198L15.794 12.1431Z" fill="#8C9157"/>
<ellipse cx="14" cy="8.66667" rx="1.33333" ry="2" fill="#C59262"/>
</g>
</g>
<defs>
<clipPath id="clip0_5138_1407">
<rect width="28" height="20" fill="white"/>
</clipPath>
</defs>
</svg>

<svg xmlns="http://www.w3.org/2000/svg" width="28" height="20" fill="none" viewBox="0 0 28 20"><g clip-path="url(#a)"><path fill="#fff" d="M0 2C0 .8954.8954 0 2 0h24c1.1046 0 2 .8954 2 2v16c0 1.1046-.8954 2-2 2H2c-1.1046 0-2-.8954-2-2z"/><mask id="b" width="28" height="20" x="0" y="0" maskUnits="userSpaceOnUse" style="mask-type:luminance"><rect width="28" height="20" fill="#fff" rx="2"/></mask><g mask="url(#b)"><path fill="#f5f5f5" d="M26 19.5v.5H2v-.5zm1.5-1.5V2c0-.8284-.6716-1.5-1.5-1.5H2C1.1716.5.5 1.1716.5 2v16c0 .8284.6716 1.5 1.5 1.5v.5c-1.1046 0-2-.8954-2-2V2C0 .8954.8954 0 2 0h24c1.1046 0 2 .8954 2 2v16c0 1.1046-.8954 2-2 2v-.5c.8284 0 1.5-.6716 1.5-1.5"/><path fill="#e3283e" d="M18.6667 0H28v20h-9.3333z"/><path fill="#128a60" fill-rule="evenodd" d="M0 20h9.3333V0H0z" clip-rule="evenodd"/><path fill="#8c9157" d="M12 9.3333a.6667.6667 0 0 0-1.3333 0zm.329 2.8848a.6667.6667 0 1 0 .6692-1.1533zm2.7466-1.1983a.6668.6668 0 0 0 .7184 1.1233zm2.2577-1.6865a.6666.6666 0 1 0-1.3333 0zm-6.6666 0c0 1.2331.6698 2.3089 1.6623 2.8848l.6692-1.1533c-.5983-.3471-.9982-.993-.9982-1.7315zm5.1273 2.8098c.9243-.5911 1.5393-1.6284 1.5393-2.8098H16c0 .7077-.3671 1.3301-.9244 1.6865z"/><ellipse cx="14" cy="9" fill="#c59262" rx="1" ry="2"/></g></g><defs><clipPath id="a"><path fill="#fff" d="M0 0h28v20H0z"/></clipPath></defs></svg>
